X:20
T:In the Jungle
Z:Andrew Swaine <aswaine@iname.com>
M:2/4
L:1/8
K:G
P:A
"G"G2A>B- B>A-A>B|"C"c2B>A- A>G-G>A|"G"B2A>G- G>B-B>A-|"D"A8||
"G"d2B>A- A>B-B>d|"C"c2B>A- A>G-G>A|"G"B2A>G- G>B-B>A-|"D"A8||
P:B
"G"d8|"C"d2c>d- d>c-c2|"G"B2D>D- D>DD2-|D8:|
